images/16757984.svg

<?xml version="1.0" encoding="UTF-8"?>
<svg xmlns="http://www.w3.org/2000/svg" xmlns:xlink="http://www.w3.org/1999/xlink" width="300pt" height="300pt" viewBox="0 0 300 300" version="1.1">
<defs>
<g>
<symbol overflow="visible" id="glyph0-0">
<path style="stroke:none;" d="M 0.453125 1.59375 L 0.453125 -6.34375 L 4.953125 -6.34375 L 4.953125 1.59375 Z M 0.953125 1.09375 L 4.453125 1.09375 L 4.453125 -5.84375 L 0.953125 -5.84375 Z M 0.953125 1.09375 "/>
</symbol>
<symbol overflow="visible" id="glyph0-1">
<path style="stroke:none;" d="M 3.546875 -5.953125 C 2.898438 -5.953125 2.382812 -5.710938 2 -5.234375 C 1.625 -4.753906 1.4375 -4.101562 1.4375 -3.28125 C 1.4375 -2.445312 1.625 -1.789062 2 -1.3125 C 2.382812 -0.832031 2.898438 -0.59375 3.546875 -0.59375 C 4.191406 -0.59375 4.703125 -0.832031 5.078125 -1.3125 C 5.453125 -1.789062 5.640625 -2.445312 5.640625 -3.28125 C 5.640625 -4.101562 5.453125 -4.753906 5.078125 -5.234375 C 4.703125 -5.710938 4.191406 -5.953125 3.546875 -5.953125 Z M 3.546875 -6.6875 C 4.460938 -6.6875 5.195312 -6.375 5.75 -5.75 C 6.300781 -5.132812 6.578125 -4.3125 6.578125 -3.28125 C 6.578125 -2.238281 6.300781 -1.410156 5.75 -0.796875 C 5.195312 -0.179688 4.460938 0.125 3.546875 0.125 C 2.617188 0.125 1.878906 -0.179688 1.328125 -0.796875 C 0.773438 -1.410156 0.5 -2.238281 0.5 -3.28125 C 0.5 -4.3125 0.773438 -5.132812 1.328125 -5.75 C 1.878906 -6.375 2.617188 -6.6875 3.546875 -6.6875 Z M 3.546875 -6.6875 "/>
</symbol>
</g>
</defs>
<g id="surface29977">
<rect x="0" y="0" width="300" height="300" style="fill:rgb(100%,100%,100%);fill-opacity:1;stroke:none;"/>
<path style="fill:none;stroke-width:1.2;stroke-linecap:butt;stroke-linejoin:miter;stroke:rgb(0%,0%,0%);stroke-opacity:1;stroke-miterlimit:10;" d="M 124.859375 221.089844 L 116.765625 197.394531 "/>
<path style="fill:none;stroke-width:1.2;stroke-linecap:butt;stroke-linejoin:miter;stroke:rgb(0%,0%,0%);stroke-opacity:1;stroke-miterlimit:10;" d="M 117.335938 194.503906 L 105.050781 192.082031 "/>
<path style="fill:none;stroke-width:1.2;stroke-linecap:butt;stroke-linejoin:miter;stroke:rgb(100%,0%,0%);stroke-opacity:1;stroke-miterlimit:10;" d="M 105.050781 192.082031 L 92.765625 189.664062 "/>
<path style="fill:none;stroke-width:1.2;stroke-linecap:butt;stroke-linejoin:miter;stroke:rgb(0%,0%,0%);stroke-opacity:1;stroke-miterlimit:10;" d="M 116.195312 200.285156 L 103.910156 197.863281 "/>
<path style="fill:none;stroke-width:1.2;stroke-linecap:butt;stroke-linejoin:miter;stroke:rgb(100%,0%,0%);stroke-opacity:1;stroke-miterlimit:10;" d="M 103.910156 197.863281 L 91.628906 195.445312 "/>
<path style="fill:none;stroke-width:1.2;stroke-linecap:butt;stroke-linejoin:miter;stroke:rgb(0%,0%,0%);stroke-opacity:1;stroke-miterlimit:10;" d="M 116.765625 197.394531 L 125.003906 187.964844 "/>
<path style="fill:none;stroke-width:1.2;stroke-linecap:butt;stroke-linejoin:miter;stroke:rgb(100%,0%,0%);stroke-opacity:1;stroke-miterlimit:10;" d="M 125.003906 187.964844 L 133.238281 178.535156 "/>
<path style=" stroke:none;fill-rule:nonzero;fill:rgb(100%,100%,100%);fill-opacity:1;" d="M 84.195312 187.054688 L 92.195312 187.054688 L 92.195312 198.054688 L 84.195312 198.054688 Z M 84.195312 187.054688 "/>
<g style="fill:rgb(100%,0%,0%);fill-opacity:1;">
  <use xlink:href="#glyph0-1" x="84.195312" y="195.717773"/>
</g>
<path style="fill:none;stroke-width:1.2;stroke-linecap:butt;stroke-linejoin:miter;stroke:rgb(100%,0%,0%);stroke-opacity:1;stroke-miterlimit:10;" d="M 133.238281 178.535156 L 129.191406 166.6875 "/>
<path style="fill:none;stroke-width:1.2;stroke-linecap:butt;stroke-linejoin:miter;stroke:rgb(0%,0%,0%);stroke-opacity:1;stroke-miterlimit:10;" d="M 129.191406 166.6875 L 125.144531 154.839844 "/>
<path style=" stroke:none;fill-rule:nonzero;fill:rgb(100%,100%,100%);fill-opacity:1;" d="M 129.238281 173.035156 L 137.238281 173.035156 L 137.238281 184.035156 L 129.238281 184.035156 Z M 129.238281 173.035156 "/>
<g style="fill:rgb(100%,0%,0%);fill-opacity:1;">
  <use xlink:href="#glyph0-1" x="129.238281" y="181.698242"/>
</g>
<path style="fill:none;stroke-width:1.2;stroke-linecap:butt;stroke-linejoin:miter;stroke:rgb(0%,0%,0%);stroke-opacity:1;stroke-miterlimit:10;" d="M 125.144531 154.839844 L 100.578125 150 "/>
<path style="fill:none;stroke-width:1.2;stroke-linecap:butt;stroke-linejoin:miter;stroke:rgb(0%,0%,0%);stroke-opacity:1;stroke-miterlimit:10;" d="M 141.621094 135.980469 L 125.144531 154.839844 "/>
<path style="fill:none;stroke-width:1.2;stroke-linecap:butt;stroke-linejoin:miter;stroke:rgb(0%,0%,0%);stroke-opacity:1;stroke-miterlimit:10;" d="M 100.578125 150 L 92.480469 126.304688 "/>
<path style="fill:none;stroke-width:1.2;stroke-linecap:butt;stroke-linejoin:miter;stroke:rgb(0%,0%,0%);stroke-opacity:1;stroke-miterlimit:10;" d="M 92.480469 126.304688 L 108.957031 107.445312 "/>
<path style="fill:none;stroke-width:1.2;stroke-linecap:butt;stroke-linejoin:miter;stroke:rgb(0%,0%,0%);stroke-opacity:1;stroke-miterlimit:10;" d="M 67.914062 121.464844 L 92.480469 126.304688 "/>
<path style="fill:none;stroke-width:1.2;stroke-linecap:butt;stroke-linejoin:miter;stroke:rgb(0%,0%,0%);stroke-opacity:1;stroke-miterlimit:10;" d="M 108.957031 107.445312 L 100.863281 83.75 "/>
<path style="fill:none;stroke-width:1.2;stroke-linecap:butt;stroke-linejoin:miter;stroke:rgb(0%,0%,0%);stroke-opacity:1;stroke-miterlimit:10;" d="M 108.957031 107.445312 L 133.527344 112.285156 "/>
<path style=" stroke:none;fill-rule:nonzero;fill:rgb(0%,0%,0%);fill-opacity:1;" d="M 108.957031 107.445312 L 128.757812 91.496094 L 122.101562 85.679688 Z M 108.957031 107.445312 "/>
<path style="fill:none;stroke-width:1.2;stroke-linecap:butt;stroke-linejoin:miter;stroke:rgb(0%,0%,0%);stroke-opacity:1;stroke-miterlimit:10;" d="M 100.863281 83.75 L 76.292969 78.910156 "/>
<path style="fill:none;stroke-width:1.2;stroke-linecap:butt;stroke-linejoin:miter;stroke:rgb(0%,0%,0%);stroke-opacity:1;stroke-miterlimit:10;" d="M 76.292969 78.910156 L 59.820312 97.769531 "/>
<path style="fill:none;stroke-width:1.2;stroke-linecap:butt;stroke-linejoin:miter;stroke:rgb(0%,0%,0%);stroke-opacity:1;stroke-miterlimit:10;" d="M 60.386719 94.878906 L 48.105469 92.460938 "/>
<path style="fill:none;stroke-width:1.2;stroke-linecap:butt;stroke-linejoin:miter;stroke:rgb(100%,0%,0%);stroke-opacity:1;stroke-miterlimit:10;" d="M 48.105469 92.460938 L 35.820312 90.039062 "/>
<path style="fill:none;stroke-width:1.2;stroke-linecap:butt;stroke-linejoin:miter;stroke:rgb(0%,0%,0%);stroke-opacity:1;stroke-miterlimit:10;" d="M 59.25 100.660156 L 46.964844 98.242188 "/>
<path style="fill:none;stroke-width:1.2;stroke-linecap:butt;stroke-linejoin:miter;stroke:rgb(100%,0%,0%);stroke-opacity:1;stroke-miterlimit:10;" d="M 46.964844 98.242188 L 34.679688 95.820312 "/>
<path style="fill:none;stroke-width:1.2;stroke-linecap:butt;stroke-linejoin:miter;stroke:rgb(0%,0%,0%);stroke-opacity:1;stroke-miterlimit:10;" d="M 59.820312 97.769531 L 67.914062 121.464844 "/>
<path style=" stroke:none;fill-rule:nonzero;fill:rgb(100%,100%,100%);fill-opacity:1;" d="M 27.25 87.429688 L 35.25 87.429688 L 35.25 98.429688 L 27.25 98.429688 Z M 27.25 87.429688 "/>
<g style="fill:rgb(100%,0%,0%);fill-opacity:1;">
  <use xlink:href="#glyph0-1" x="27.25" y="96.092773"/>
</g>
<path style="fill:none;stroke-width:1.2;stroke-linecap:butt;stroke-linejoin:miter;stroke:rgb(0%,0%,0%);stroke-opacity:1;stroke-miterlimit:10;" d="M 67.914062 121.464844 L 67.414062 146.5 "/>
<path style="fill:none;stroke-width:1.2;stroke-linecap:butt;stroke-linejoin:miter;stroke:rgb(0%,0%,0%);stroke-opacity:1;stroke-miterlimit:10;" d="M 67.914062 121.464844 L 43.171875 125.320312 "/>
<path style="fill:none;stroke-width:1.2;stroke-linecap:butt;stroke-linejoin:miter;stroke:rgb(0%,0%,0%);stroke-opacity:1;stroke-miterlimit:10;" d="M 133.527344 112.285156 L 141.621094 135.980469 "/>
<path style="fill:none;stroke-width:1.2;stroke-linecap:butt;stroke-linejoin:miter;stroke:rgb(0%,0%,0%);stroke-opacity:1;stroke-miterlimit:10;" d="M 150 93.425781 L 133.527344 112.285156 "/>
<path style="fill:none;stroke-width:1.2;stroke-linecap:butt;stroke-linejoin:miter;stroke:rgb(0%,0%,0%);stroke-opacity:1;stroke-miterlimit:10;" d="M 141.621094 135.980469 L 166.1875 140.816406 "/>
<path style=" stroke:none;fill-rule:nonzero;fill:rgb(0%,0%,0%);fill-opacity:1;" d="M 141.621094 135.980469 L 138.34375 149.613281 L 147.148438 148.867188 Z M 141.621094 135.980469 "/>
<path style="fill:none;stroke-width:1.2;stroke-linecap:butt;stroke-linejoin:miter;stroke:rgb(0%,0%,0%);stroke-opacity:1;stroke-miterlimit:10;" d="M 166.1875 140.816406 L 174.285156 164.515625 "/>
<path style="fill:none;stroke-width:1;stroke-linecap:butt;stroke-linejoin:miter;stroke:rgb(0%,0%,0%);stroke-opacity:1;stroke-miterlimit:10;" d="M 166.1875 140.816406 L 166.1875 140.816406 M 163.851562 142.699219 L 164.636719 143.386719 M 161.515625 144.582031 L 163.085938 145.953125 M 159.179688 146.464844 L 161.535156 148.523438 M 156.84375 148.347656 L 159.984375 151.089844 M 154.507812 150.226562 L 158.433594 153.65625 M 152.171875 152.109375 L 156.882812 156.226562 M 149.835938 153.992188 L 155.332031 158.792969 M 147.5 155.875 L 153.78125 161.363281 M 146.386719 156.769531 L 153.042969 162.582031 "/>
<path style="fill:none;stroke-width:1.2;stroke-linecap:butt;stroke-linejoin:miter;stroke:rgb(0%,0%,0%);stroke-opacity:1;stroke-miterlimit:10;" d="M 182.664062 121.960938 L 166.1875 140.816406 "/>
<path style="fill:none;stroke-width:1.2;stroke-linecap:butt;stroke-linejoin:miter;stroke:rgb(0%,0%,0%);stroke-opacity:1;stroke-miterlimit:10;" d="M 174.285156 164.515625 L 162 162.09375 "/>
<path style="fill:none;stroke-width:1.2;stroke-linecap:butt;stroke-linejoin:miter;stroke:rgb(100%,0%,0%);stroke-opacity:1;stroke-miterlimit:10;" d="M 162 162.09375 L 149.714844 159.675781 "/>
<path style="fill:none;stroke-width:1.2;stroke-linecap:butt;stroke-linejoin:miter;stroke:rgb(0%,0%,0%);stroke-opacity:1;stroke-miterlimit:10;" d="M 174.285156 164.515625 L 198.851562 169.351562 "/>
<path style=" stroke:none;fill-rule:nonzero;fill:rgb(100%,100%,100%);fill-opacity:1;" d="M 145.714844 154.175781 L 153.714844 154.175781 L 153.714844 165.175781 L 145.714844 165.175781 Z M 145.714844 154.175781 "/>
<g style="fill:rgb(100%,0%,0%);fill-opacity:1;">
  <use xlink:href="#glyph0-1" x="145.714844" y="162.838867"/>
</g>
<path style="fill:none;stroke-width:1.2;stroke-linecap:butt;stroke-linejoin:miter;stroke:rgb(0%,0%,0%);stroke-opacity:1;stroke-miterlimit:10;" d="M 196.0625 170.304688 L 200.113281 182.152344 "/>
<path style="fill:none;stroke-width:1.2;stroke-linecap:butt;stroke-linejoin:miter;stroke:rgb(100%,0%,0%);stroke-opacity:1;stroke-miterlimit:10;" d="M 200.113281 182.152344 L 204.160156 194 "/>
<path style="fill:none;stroke-width:1.2;stroke-linecap:butt;stroke-linejoin:miter;stroke:rgb(0%,0%,0%);stroke-opacity:1;stroke-miterlimit:10;" d="M 201.640625 168.402344 L 205.6875 180.25 "/>
<path style="fill:none;stroke-width:1.2;stroke-linecap:butt;stroke-linejoin:miter;stroke:rgb(100%,0%,0%);stroke-opacity:1;stroke-miterlimit:10;" d="M 205.6875 180.25 L 209.734375 192.097656 "/>
<path style="fill:none;stroke-width:1.2;stroke-linecap:butt;stroke-linejoin:miter;stroke:rgb(0%,0%,0%);stroke-opacity:1;stroke-miterlimit:10;" d="M 198.851562 169.351562 L 207.089844 159.921875 "/>
<path style="fill:none;stroke-width:1.2;stroke-linecap:butt;stroke-linejoin:miter;stroke:rgb(100%,0%,0%);stroke-opacity:1;stroke-miterlimit:10;" d="M 207.089844 159.921875 L 215.328125 150.496094 "/>
<path style=" stroke:none;fill-rule:nonzero;fill:rgb(100%,100%,100%);fill-opacity:1;" d="M 202.945312 187.550781 L 210.945312 187.550781 L 210.945312 198.550781 L 202.945312 198.550781 Z M 202.945312 187.550781 "/>
<g style="fill:rgb(100%,0%,0%);fill-opacity:1;">
  <use xlink:href="#glyph0-1" x="202.945312" y="196.213867"/>
</g>
<path style="fill:none;stroke-width:1.2;stroke-linecap:butt;stroke-linejoin:miter;stroke:rgb(100%,0%,0%);stroke-opacity:1;stroke-miterlimit:10;" d="M 215.328125 150.496094 L 211.28125 138.644531 "/>
<path style="fill:none;stroke-width:1.2;stroke-linecap:butt;stroke-linejoin:miter;stroke:rgb(0%,0%,0%);stroke-opacity:1;stroke-miterlimit:10;" d="M 211.28125 138.644531 L 207.230469 126.796875 "/>
<path style=" stroke:none;fill-rule:nonzero;fill:rgb(100%,100%,100%);fill-opacity:1;" d="M 211.328125 144.996094 L 219.328125 144.996094 L 219.328125 155.996094 L 211.328125 155.996094 Z M 211.328125 144.996094 "/>
<g style="fill:rgb(100%,0%,0%);fill-opacity:1;">
  <use xlink:href="#glyph0-1" x="211.328125" y="153.65918"/>
</g>
<path style="fill:none;stroke-width:1.2;stroke-linecap:butt;stroke-linejoin:miter;stroke:rgb(0%,0%,0%);stroke-opacity:1;stroke-miterlimit:10;" d="M 207.230469 126.796875 L 182.664062 121.960938 "/>
<path style="fill:none;stroke-width:1.2;stroke-linecap:butt;stroke-linejoin:miter;stroke:rgb(0%,0%,0%);stroke-opacity:1;stroke-miterlimit:10;" d="M 207.230469 126.796875 L 223.707031 107.941406 "/>
<path style="fill:none;stroke-width:1.2;stroke-linecap:butt;stroke-linejoin:miter;stroke:rgb(0%,0%,0%);stroke-opacity:1;stroke-miterlimit:10;" d="M 182.664062 121.960938 L 174.570312 98.261719 "/>
<path style="fill:none;stroke-width:1;stroke-linecap:butt;stroke-linejoin:miter;stroke:rgb(0%,0%,0%);stroke-opacity:1;stroke-miterlimit:10;" d="M 182.664062 121.960938 L 182.664062 121.960938 M 185 120.078125 L 184.214844 119.390625 M 187.335938 118.195312 L 185.765625 116.824219 M 189.671875 116.3125 L 187.316406 114.257812 M 192.007812 114.433594 L 188.867188 111.6875 M 194.34375 112.550781 L 190.417969 109.121094 M 196.679688 110.667969 L 191.96875 106.550781 M 199.015625 108.785156 L 193.519531 103.984375 M 201.355469 106.90625 L 195.070312 101.417969 M 202.464844 106.007812 L 195.808594 100.195312 "/>
<path style="fill:none;stroke-width:1.2;stroke-linecap:butt;stroke-linejoin:miter;stroke:rgb(0%,0%,0%);stroke-opacity:1;stroke-miterlimit:10;" d="M 174.570312 98.261719 L 150 93.425781 "/>
<path style="fill:none;stroke-width:1.2;stroke-linecap:butt;stroke-linejoin:miter;stroke:rgb(0%,0%,0%);stroke-opacity:1;stroke-miterlimit:10;" d="M 226.496094 106.988281 L 222.445312 95.140625 "/>
<path style="fill:none;stroke-width:1.2;stroke-linecap:butt;stroke-linejoin:miter;stroke:rgb(100%,0%,0%);stroke-opacity:1;stroke-miterlimit:10;" d="M 222.445312 95.140625 L 218.398438 83.292969 "/>
<path style="fill:none;stroke-width:1.2;stroke-linecap:butt;stroke-linejoin:miter;stroke:rgb(0%,0%,0%);stroke-opacity:1;stroke-miterlimit:10;" d="M 220.917969 108.890625 L 216.871094 97.042969 "/>
<path style="fill:none;stroke-width:1.2;stroke-linecap:butt;stroke-linejoin:miter;stroke:rgb(100%,0%,0%);stroke-opacity:1;stroke-miterlimit:10;" d="M 216.871094 97.042969 L 212.824219 85.195312 "/>
<path style="fill:none;stroke-width:1.2;stroke-linecap:butt;stroke-linejoin:miter;stroke:rgb(0%,0%,0%);stroke-opacity:1;stroke-miterlimit:10;" d="M 223.707031 107.941406 L 235.992188 110.359375 "/>
<path style="fill:none;stroke-width:1.2;stroke-linecap:butt;stroke-linejoin:miter;stroke:rgb(100%,0%,0%);stroke-opacity:1;stroke-miterlimit:10;" d="M 235.992188 110.359375 L 248.277344 112.777344 "/>
<path style=" stroke:none;fill-rule:nonzero;fill:rgb(100%,100%,100%);fill-opacity:1;" d="M 207.613281 78.742188 L 215.613281 78.742188 L 215.613281 89.742188 L 207.613281 89.742188 Z M 207.613281 78.742188 "/>
<g style="fill:rgb(100%,0%,0%);fill-opacity:1;">
  <use xlink:href="#glyph0-1" x="207.613281" y="87.405273"/>
</g>
<path style="fill:none;stroke-width:1.2;stroke-linecap:butt;stroke-linejoin:miter;stroke:rgb(100%,0%,0%);stroke-opacity:1;stroke-miterlimit:10;" d="M 248.277344 112.777344 L 256.511719 103.347656 "/>
<path style="fill:none;stroke-width:1.2;stroke-linecap:butt;stroke-linejoin:miter;stroke:rgb(0%,0%,0%);stroke-opacity:1;stroke-miterlimit:10;" d="M 256.511719 103.347656 L 264.75 93.921875 "/>
<path style=" stroke:none;fill-rule:nonzero;fill:rgb(100%,100%,100%);fill-opacity:1;" d="M 244.277344 107.277344 L 252.277344 107.277344 L 252.277344 118.277344 L 244.277344 118.277344 Z M 244.277344 107.277344 "/>
<g style="fill:rgb(100%,0%,0%);fill-opacity:1;">
  <use xlink:href="#glyph0-1" x="244.277344" y="115.94043"/>
</g>
</g>
</svg>

<svg xmlns="http://www.w3.org/2000/svg" xmlns:xlink="http://www.w3.org/1999/xlink" width="300pt" height="300pt" viewBox="0 0 300 300"><defs><symbol overflow="visible"><path d="M.453 1.594v-7.938h4.5v7.938zm.5-.5h3.5v-6.938h-3.5zm0 0"/></symbol><symbol overflow="visible" id="a"><path d="M3.547-5.953c-.65 0-1.164.242-1.547.72-.375.48-.563 1.13-.563 1.952 0 .835.188 1.49.563 1.967.383.48.898.72 1.547.72.644 0 1.156-.24 1.53-.72.376-.476.564-1.132.564-1.968 0-.822-.187-1.474-.562-1.954-.375-.477-.887-.72-1.53-.72zm0-.734c.914 0 1.648.312 2.203.937.55.617.828 1.438.828 2.47 0 1.042-.277 1.87-.828 2.483-.555.617-1.29.922-2.203.922-.93 0-1.668-.305-2.22-.922C.774-1.41.5-2.237.5-3.28c0-1.033.273-1.853.828-2.47.55-.625 1.29-.938 2.22-.938zm0 0"/></symbol></defs><g><path fill="#fff" d="M0 0h300v300H0z"/><path d="M124.86 221.09l-8.094-23.695M117.336 194.504l-12.285-2.422" stroke-width="1.2" stroke="#000" stroke-miterlimit="10" fill="none"/><path d="M105.05 192.082l-12.284-2.418" stroke-width="1.2" stroke="#f00" stroke-miterlimit="10" fill="none"/><path d="M116.195 200.285l-12.285-2.422" stroke-width="1.2" stroke="#000" stroke-miterlimit="10" fill="none"/><path d="M103.91 197.863l-12.28-2.418" stroke-width="1.2" stroke="#f00" stroke-miterlimit="10" fill="none"/><path d="M116.766 197.395l8.238-9.43" stroke-width="1.2" stroke="#000" stroke-miterlimit="10" fill="none"/><path d="M125.004 187.965l8.234-9.43" stroke-width="1.2" stroke="#f00" stroke-miterlimit="10" fill="none"/><path d="M84.195 187.055h8v11h-8zm0 0" fill="#fff"/><use xlink:href="#a" x="84.195" y="195.718" fill="#f00"/><path d="M133.238 178.535l-4.047-11.847" stroke-width="1.2" stroke="#f00" stroke-miterlimit="10" fill="none"/><path d="M129.19 166.688l-4.045-11.848" stroke-width="1.2" stroke="#000" stroke-miterlimit="10" fill="none"/><path d="M129.238 173.035h8v11h-8zm0 0" fill="#fff"/><use xlink:href="#a" x="129.238" y="181.698" fill="#f00"/><path d="M125.145 154.84L100.578 150M141.62 135.98l-16.475 18.86M100.578 150l-8.098-23.695M92.48 126.305l16.477-18.86M67.914 121.465l24.566 4.84M108.957 107.445l-8.094-23.695M108.957 107.445l24.57 4.84" stroke-width="1.2" stroke="#000" stroke-miterlimit="10" fill="none"/><path d="M108.957 107.445l19.8-15.95-6.655-5.815zm0 0"/><path d="M100.863 83.75l-24.57-4.84M76.293 78.91L59.82 97.77M60.387 94.88l-12.282-2.42" stroke-width="1.2" stroke="#000" stroke-miterlimit="10" fill="none"/><path d="M48.105 92.46L35.82 90.04" stroke-width="1.2" stroke="#f00" stroke-miterlimit="10" fill="none"/><path d="M59.25 100.66l-12.285-2.418" stroke-width="1.2" stroke="#000" stroke-miterlimit="10" fill="none"/><path d="M46.965 98.242L34.68 95.82" stroke-width="1.2" stroke="#f00" stroke-miterlimit="10" fill="none"/><path d="M59.82 97.77l8.094 23.695" stroke-width="1.2" stroke="#000" stroke-miterlimit="10" fill="none"/><path d="M27.25 87.43h8v11h-8zm0 0" fill="#fff"/><use xlink:href="#a" x="27.25" y="96.093" fill="#f00"/><path d="M67.914 121.465l-.5 25.035M67.914 121.465l-24.742 3.855M133.527 112.285l8.094 23.695M150 93.426l-16.473 18.86M141.62 135.98l24.567 4.836" stroke-width="1.2" stroke="#000" stroke-miterlimit="10" fill="none"/><path d="M141.62 135.98l-3.276 13.633 8.804-.746zm0 0"/><path d="M166.188 140.816l8.097 23.7" stroke-width="1.2" stroke="#000" stroke-miterlimit="10" fill="none"/><path d="M166.188 140.816m-2.336 1.883l.785.687m-3.12 1.195l1.57 1.37m-3.907.513l2.355 2.058m-4.69-.175l3.14 2.742m-5.477-.863l3.926 3.43m-6.262-1.548l4.71 4.117m-7.046-2.235l5.496 4.8m-7.832-2.917l6.28 5.488m-7.393-4.593l6.656 5.812" stroke="#000" stroke-miterlimit="10" fill="none"/><path d="M182.664 121.96l-16.476 18.856M174.285 164.516L162 162.094" stroke-width="1.2" stroke="#000" stroke-miterlimit="10" fill="none"/><path d="M162 162.094l-12.285-2.418" stroke-width="1.2" stroke="#f00" stroke-miterlimit="10" fill="none"/><path d="M174.285 164.516l24.567 4.836" stroke-width="1.2" stroke="#000" stroke-miterlimit="10" fill="none"/><path d="M145.715 154.176h8v11h-8zm0 0" fill="#fff"/><use xlink:href="#a" x="145.715" y="162.839" fill="#f00"/><path d="M196.063 170.305l4.05 11.847" stroke-width="1.2" stroke="#000" stroke-miterlimit="10" fill="none"/><path d="M200.113 182.152L204.16 194" stroke-width="1.2" stroke="#f00" stroke-miterlimit="10" fill="none"/><path d="M201.64 168.402l4.048 11.848" stroke-width="1.2" stroke="#000" stroke-miterlimit="10" fill="none"/><path d="M205.688 180.25l4.046 11.848" stroke-width="1.2" stroke="#f00" stroke-miterlimit="10" fill="none"/><path d="M198.852 169.352l8.238-9.43" stroke-width="1.2" stroke="#000" stroke-miterlimit="10" fill="none"/><path d="M207.09 159.922l8.238-9.426" stroke-width="1.2" stroke="#f00" stroke-miterlimit="10" fill="none"/><path d="M202.945 187.55h8v11h-8zm0 0" fill="#fff"/><use xlink:href="#a" x="202.945" y="196.214" fill="#f00"/><path d="M215.328 150.496l-4.047-11.85" stroke-width="1.2" stroke="#f00" stroke-miterlimit="10" fill="none"/><path d="M211.28 138.645l-4.05-11.848" stroke-width="1.2" stroke="#000" stroke-miterlimit="10" fill="none"/><path d="M211.328 144.996h8v11h-8zm0 0" fill="#fff"/><use xlink:href="#a" x="211.328" y="153.659" fill="#f00"/><path d="M207.23 126.797l-24.566-4.836M207.23 126.797l16.477-18.856M182.664 121.96l-8.094-23.698" stroke-width="1.2" stroke="#000" stroke-miterlimit="10" fill="none"/><path d="M182.664 121.96 185 120.08l-.785-.687m3.12-1.195l-1.57-1.37m3.907-.513l-2.356-2.054m4.692.176l-3.14-2.746m5.476.863l-3.926-3.43m6.262 1.548l-4.71-4.117m7.046 2.235l-5.496-4.8m7.835 2.92l-6.285-5.487m7.395 4.59l-6.656-5.813" stroke="#000" stroke-miterlimit="10" fill="none"/><path d="M174.57 98.262L150 93.426M226.496 106.988l-4.05-11.847" stroke-width="1.2" stroke="#000" stroke-miterlimit="10" fill="none"/><path d="M222.445 95.14l-4.047-11.847" stroke-width="1.2" stroke="#f00" stroke-miterlimit="10" fill="none"/><path d="M220.918 108.89l-4.047-11.847" stroke-width="1.2" stroke="#000" stroke-miterlimit="10" fill="none"/><path d="M216.87 97.043l-4.046-11.848" stroke-width="1.2" stroke="#f00" stroke-miterlimit="10" fill="none"/><path d="M223.707 107.94l12.285 2.42" stroke-width="1.2" stroke="#000" stroke-miterlimit="10" fill="none"/><path d="M235.992 110.36l12.285 2.417" stroke-width="1.2" stroke="#f00" stroke-miterlimit="10" fill="none"/><path d="M207.613 78.742h8v11h-8zm0 0" fill="#fff"/><use xlink:href="#a" x="207.613" y="87.405" fill="#f00"/><path d="M248.277 112.777l8.235-9.43" stroke-width="1.2" stroke="#f00" stroke-miterlimit="10" fill="none"/><path d="M256.512 103.348l8.238-9.426" stroke-width="1.2" stroke="#000" stroke-miterlimit="10" fill="none"/><path d="M244.277 107.277h8v11h-8zm0 0" fill="#fff"/><use xlink:href="#a" x="244.277" y="115.94" fill="#f00"/></g></svg>
